!!!OTL: ICH WAND EINST EINEN VEILCHENKRANZ
!!!ARE: Europa, Mitteleuropa, Deutschland, Gransee, Roennebeck
!!!SCT: B0463
!!!YEM: Copyright 1995, estate of Helmut Schaffrath.
**kern
*ICvox
*Ivox
*M2/4
*k[f#]
*G:
{8dd
=1
8ee
8dd
8cc
8a
=2
4g
8b}
{8g
=3
4f#
8a
8cc
=4
4cc
8b}
{8d
=5
4cc
8b
8a
=6
4a
8g}
{8e
=7
4d
8e
8f#
=8
4g
8r}
{8d
=9
8f#
8a
8a
8cc
=10
4.dd}
{8b
=11
8.cc
16ee
8gg
8ee
=12
4.dd}
{8g
=13
8f#
8a
8cc
8ee
=14
8ee
8dd}
{8b
8g
=15
4dd
8cc
8a
=16
4g
8r}
==
!!!AGN: Liebes - Lied, Leid, Klage
!!!ONB: ESAC (Essen Associative Code) Database: BOEHME
!!!AMT: simple duple
!!!AIN: vox
!!!EED: Helmut Schaffrath
!!!EEV: 1.0
*-
